static/fa/svgs/regular/folder-closed.svg

<svg xmlns="http://www.w3.org/2000/svg" viewBox="0 0 512 512"><!--! Font Awesome Free 6.1.1 by @fontawesome - https://fontawesome.com License - https://fontawesome.com/license/free (Icons: CC BY 4.0, Fonts: SIL OFL 1.1, Code: MIT License) Copyright 2022 Fonticons, Inc.--><path d="M448 96H275.9l-49.2-45.25C214.7 38.74 198.5 32 181.5 32H64C28.65 32 0 60.66 0 96v320c0 35.34 28.65 64 64 64h384c35.35 0 64-28.66 64-64V160c0-35.3-28.7-64-64-64zM64 80h117.5c4.273 0 8.293 1.664 11.31 4.688L256 144h192c8.822 0 16 7.176 16 16v32H48V96c0-8.82 7.18-16 16-16zm384 352H64c-8.822 0-16-7.176-16-16V240h416v176c0 8.8-7.2 16-16 16z"/></svg>

<svg xmlns="http://www.w3.org/2000/svg" viewBox="0 0 512 512"><!--! Font Awesome Free 6.1.1 by @fontawesome - https://fontawesome.com License - https://fontawesome.com/license/free (Icons: CC BY 4.0, Fonts: SIL OFL 1.1, Code: MIT License) Copyright 2022 Fonticons, Inc. --><path d="M448 96h-172.1L226.7 50.75C214.7 38.74 198.5 32 181.5 32H64C28.65 32 0 60.66 0 96v320c0 35.34 28.65 64 64 64h384c35.35 0 64-28.66 64-64V160C512 124.7 483.3 96 448 96zM64 80h117.5c4.273 0 8.293 1.664 11.31 4.688L256 144h192c8.822 0 16 7.176 16 16v32h-416V96C48 87.18 55.18 80 64 80zM448 432H64c-8.822 0-16-7.176-16-16V240h416V416C464 424.8 456.8 432 448 432z"/></svg>
